src/views/components/like/images/like-button.svg

<svg width="40" height="20" viewBox="0 0 40 20" fill="none" xmlns="http://www.w3.org/2000/svg">
<rect x="0.5" y="0.5" width="38.7211" height="19" rx="9.5" fill="white" stroke="#BC9CFF"/>
<path d="M9.93026 13.8867L9.3248 13.3398C8.63469 12.7148 8.13339 12.2526 7.82089 11.9531C7.50839 11.6536 7.15683 11.2826 6.7662 10.8398C6.3886 10.3971 6.12818 10 5.98495 9.64844C5.84172 9.28385 5.77011 8.91276 5.77011 8.53516C5.77011 7.89714 5.98495 7.35677 6.41464 6.91406C6.85735 6.47135 7.40422 6.25 8.05526 6.25C8.81047 6.25 9.43547 6.54297 9.93026 7.12891C10.4251 6.54297 11.0501 6.25 11.8053 6.25C12.4563 6.25 12.9967 6.47135 13.4264 6.91406C13.8691 7.35677 14.0904 7.89714 14.0904 8.53516C14.0904 9.04297 13.9211 9.57031 13.5826 10.1172C13.2441 10.6641 12.873 11.1393 12.4693 11.543C12.0787 11.9466 11.4342 12.5521 10.5357 13.3594L9.93026 13.8867Z" fill="url(#paint0_linear)"/>
<defs>
<linearGradient id="paint0_linear" x1="9.93026" y1="0" x2="9.93026" y2="20" gradientUnits="userSpaceOnUse">
<stop stop-color="#BC9CFF"/>
<stop offset="1" stop-color="#8BA4F9"/>
</linearGradient>
</defs>
</svg>

<svg width="40" height="20" fill="none" xmlns="http://www.w3.org/2000/svg"><rect x=".5" y=".5" width="38.721" height="19" rx="9.5" fill="#fff" stroke="#BC9CFF"/><path d="m9.93 13.887-.605-.547a80.869 80.869 0 0 1-1.504-1.387c-.313-.3-.664-.67-1.055-1.113-.377-.443-.638-.84-.781-1.192a3.021 3.021 0 0 1-.215-1.113c0-.638.215-1.178.645-1.62.442-.444.99-.665 1.64-.665.755 0 1.38.293 1.875.879.495-.586 1.12-.879 1.875-.879.651 0 1.192.221 1.621.664.443.443.664.983.664 1.621 0 .508-.169 1.035-.507 1.582a7.837 7.837 0 0 1-1.114 1.426c-.39.404-1.035 1.01-1.933 1.816l-.606.528Z" fill="url(#a)"/><defs><linearGradient id="a" x1="9.93" y1="0" x2="9.93" y2="20" gradientUnits="userSpaceOnUse"><stop stop-color="#BC9CFF"/><stop offset="1" stop-color="#8BA4F9"/></linearGradient></defs></svg>
